X:5
T:Polska  (Skrattpolska)
R:Polska
O:Gotland
B:Bagge nr 5
M:3/4
L:1/16
K:D
(Ad)(cB) B2(L.A2L.A2L.A2)|(cB)(AG) G2(L.F2L.F2L.F2)|(GF)EF GABc d2(ef)|(gf).g.e (dc).d.B A4|
(Ad)(cB) B2(L.A2L.A2L.A2)|(cB)(AG) G2(L.F2L.F2L.F2)|(GF)EF GABc defg|(fe).d.c (c2d2) d2z2:|
|:(AB)(cd) c2(L.A2L.A2L.A2)|A2ce (a^g).a.e dcBA|(AB)(cd) c2(L.A2L.A2L.A2)|A2ce (a^g)ae dcBA|
(Ad)(cB) B2(L.A2L.A2L.A2)|(cB)(AG) G2(L.F2L.F2L.F2)|(GF)EF GABc defg|(fe).d.c (c2d2) d2z2:|

